public/cup.svg

<svg width="38" height="59" viewBox="0 0 38 59" fill="none" xmlns="http://www.w3.org/2000/svg">
<path d="M30.4884 50.6048C28.6825 49.6872 26.6855 49.209 24.6599 49.209C22.6343 49.209 20.6373 49.6872 18.8314 50.6048C18.1754 50.9868 17.5054 51.3188 16.9144 51.6128C15.3874 52.3718 14.2844 52.9198 14.2544 53.8398C14.2304 54.6288 15.0624 55.2118 15.7894 55.6318C19.2958 57.4447 23.1564 58.4687 27.1004 58.6318C28.2832 58.6915 29.4617 58.4485 30.5244 57.9258C31.2736 57.6475 31.9192 57.1457 32.3739 56.4884C32.8285 55.831 33.0703 55.0499 33.0663 54.2507C33.0624 53.4515 32.813 52.6727 32.3519 52.0199C31.8909 51.3671 31.2403 50.8717 30.4884 50.6008V50.6048Z" fill="#2B1F51"/>
<path d="M30.3125 19.8268C30.2096 19.8268 30.1093 19.795 30.0251 19.7359C29.9409 19.6768 29.877 19.5931 29.8421 19.4963C29.8072 19.3996 29.8031 19.2944 29.8301 19.1951C29.8572 19.0959 29.9143 19.0074 29.9935 18.9418C34.5185 15.1798 36.2775 4.4488 36.7035 1.3148L30.9925 3.8538C30.8713 3.90777 30.7336 3.91138 30.6097 3.86384C30.4859 3.8163 30.3859 3.72149 30.332 3.60029C30.278 3.47909 30.2744 3.34141 30.3219 3.21754C30.3695 3.09367 30.4643 2.99377 30.5855 2.9398L37.1055 0.0398033C37.1861 0.00369174 37.2748 -0.0104303 37.3626 -0.0011208C37.4505 0.00818868 37.5343 0.040576 37.6055 0.0927818C37.6758 0.144692 37.7312 0.21413 37.7663 0.294137C37.8014 0.374143 37.8149 0.46195 37.8055 0.548806C37.7455 1.13781 36.2425 15.0488 30.6315 19.7098C30.5421 19.7848 30.4292 19.8262 30.3125 19.8268Z" fill="#2B1F51"/>
<path d="M34.0065 9.16016L33.3785 15.3192C32.5548 23.4003 28.7166 30.8745 22.6285 36.2522L20.6365 38.0112C17.0505 35.3218 14.0634 31.9155 11.8654 28.009C9.66745 24.1025 8.30664 19.7812 7.86954 15.3202L7.26953 9.16016H34.0065Z" fill="white"/>
<path d="M20.6359 38.5102C20.5278 38.5102 20.4225 38.4751 20.3359 38.4102C16.698 35.6756 13.6674 32.2156 11.4359 28.2491C9.20438 24.2827 7.82053 19.8962 7.37194 15.3672L6.77194 9.20722C6.76508 9.13756 6.77294 9.06724 6.79498 9.0008C6.81701 8.93436 6.85273 8.87329 6.89987 8.82154C6.947 8.76979 7.00447 8.72852 7.06857 8.70039C7.13266 8.67225 7.20194 8.65787 7.27194 8.65821H34.0129C34.0831 8.65784 34.1526 8.67225 34.2169 8.70051C34.2811 8.72876 34.3387 8.77024 34.3858 8.82221C34.433 8.87419 34.4687 8.9355 34.4906 9.00217C34.5125 9.06885 34.5201 9.13939 34.5129 9.2092L33.8849 15.3682C33.0574 23.5773 29.1579 31.1702 22.968 36.6252L20.9759 38.3842C20.8827 38.4678 20.7612 38.5128 20.6359 38.5102ZM7.81796 9.65922L8.36794 15.2702C8.79576 19.593 10.1026 23.7826 12.2083 27.582C14.314 31.3814 17.1741 34.7103 20.6129 37.3642L22.2969 35.8762C28.2971 30.5868 32.0772 23.2256 32.8799 15.2672L33.4519 9.65922H7.81796Z" fill="#2B1F51"/>
<path d="M11.1614 2.85181C16.4284 -0.190187 24.9424 -0.190187 30.1764 2.85181C35.4104 5.89381 35.3764 10.8228 30.1114 13.8638C24.8464 16.9048 16.3324 16.9038 11.1014 13.8638C5.87038 10.8238 5.89638 5.89081 11.1614 2.85181Z" fill="white"/>
<path d="M20.5953 16.6342C17.201 16.702 13.846 15.8976 10.8513 14.2982C8.16732 12.7382 6.69232 10.6352 6.69532 8.37716C6.69532 6.10316 8.19533 3.98816 10.9123 2.42016C16.3123 -0.698844 25.0663 -0.695844 30.4273 2.42016C33.1093 3.97716 34.5843 6.07916 34.5813 8.33816C34.5813 10.6122 33.0813 12.7282 30.3623 14.2982C27.3587 15.8958 23.9968 16.6999 20.5953 16.6342ZM11.4123 3.28518C9.01733 4.66818 7.69832 6.47616 7.69532 8.37816C7.69532 10.2652 8.99534 12.0602 11.3533 13.4322C16.4393 16.3892 24.7433 16.3882 29.8623 13.4322C32.2623 12.0492 33.5793 10.2392 33.5813 8.33217C33.5813 6.44517 32.2813 4.65117 29.9253 3.28017C24.8373 0.323172 16.5333 0.324172 11.4123 3.28017V3.28518Z" fill="#2B1F51"/>
<path d="M28.5239 51.3882C28.5779 52.6022 27.8019 53.8261 26.1979 54.7521C24.4706 55.6312 22.56 56.0894 20.6219 56.0894C18.6838 56.0894 16.7732 55.6312 15.0459 54.7521C14.4102 54.4675 13.8624 54.0177 13.4594 53.4497C13.0563 52.8817 12.8127 52.2162 12.7539 51.5222V49.5352H28.5269L28.5239 51.3882Z" fill="white"/>
<path d="M20.6169 56.5811C18.5887 56.6209 16.5843 56.1388 14.7959 55.1812C14.0825 54.8543 13.4701 54.3416 13.0229 53.6968C12.5757 53.052 12.3101 52.2988 12.2539 51.5161V49.5352C12.2539 49.4025 12.3066 49.2754 12.4004 49.1816C12.4941 49.0878 12.6213 49.0352 12.7539 49.0352H28.5279C28.6605 49.0352 28.7877 49.0878 28.8815 49.1816C28.9752 49.2754 29.0279 49.4025 29.0279 49.5352V51.3781C29.0859 52.8181 28.1479 54.2051 26.4519 55.1841C24.6579 56.1398 22.6492 56.6207 20.6169 56.5811ZM13.2539 50.0352V51.5222C13.3162 52.128 13.5383 52.7065 13.8974 53.1985C14.2566 53.6904 14.7398 54.0782 15.2979 54.3221C16.9478 55.161 18.7725 55.5983 20.6234 55.5983C22.4743 55.5983 24.299 55.161 25.9489 54.3221C27.3349 53.5221 28.0729 52.4871 28.0259 51.4131V51.3892V50.0371L13.2539 50.0352Z" fill="#2B1F51"/>
<path d="M15.0784 45.3048C16.8061 44.4253 18.7173 43.9668 20.6559 43.9668C22.5946 43.9668 24.5058 44.4253 26.2334 45.3048C29.3024 47.0878 29.2854 49.9818 26.1954 51.7658C24.4682 52.6448 22.5575 53.103 20.6194 53.103C18.6813 53.103 16.7707 52.6448 15.0434 51.7658C11.9784 49.9808 11.9914 47.0878 15.0784 45.3048Z" fill="white"/>
<path d="M20.6158 53.5942C18.5879 53.6338 16.5839 53.1517 14.7959 52.1942C14.0466 51.9159 13.401 51.4141 12.9464 50.7568C12.4917 50.0995 12.25 49.3183 12.254 48.5191C12.2579 47.7199 12.5073 46.9412 12.9683 46.2883C13.4294 45.6355 14.0799 45.1401 14.8318 44.8692C16.6374 43.9511 18.6343 43.4727 20.6598 43.4727C22.6854 43.4727 24.6823 43.9511 26.4878 44.8692C27.2369 45.1478 27.8824 45.6498 28.3367 46.3073C28.7911 46.9649 29.0325 47.7461 29.0283 48.5453C29.024 49.3445 28.7743 50.1232 28.3129 50.7758C27.8516 51.4284 27.2009 51.9236 26.4488 52.1942C24.6556 53.1504 22.6477 53.6323 20.6158 53.5942ZM15.3318 45.7382C14.7692 45.9822 14.2808 46.3703 13.916 46.8633C13.5512 47.3563 13.3228 47.9368 13.2538 48.5462C13.3191 49.1495 13.5425 49.7249 13.9014 50.2143C14.2603 50.7036 14.742 51.0896 15.2978 51.3332C16.9477 52.1721 18.7724 52.6093 20.6233 52.6093C22.4742 52.6093 24.299 52.1721 25.9488 51.3332C26.5117 51.0888 27.0003 50.7003 27.3653 50.207C27.7302 49.7137 27.9588 49.1329 28.0278 48.5232C27.9627 47.9203 27.7396 47.3453 27.381 46.8563C27.0225 46.3673 26.5412 45.9816 25.9859 45.7382C24.3353 44.8998 22.5101 44.4629 20.6588 44.4629C18.8075 44.4629 16.9824 44.8998 15.3318 45.7382Z" fill="#2B1F51"/>
<path d="M20.6328 37.5098C20.5002 37.5098 20.373 37.5624 20.2793 37.6562C20.1855 37.75 20.1328 37.8772 20.1328 38.0098V48.5348C20.1328 48.6674 20.1855 48.7945 20.2793 48.8883C20.373 48.9821 20.5002 49.0348 20.6328 49.0348C20.7654 49.0348 20.8926 48.9821 20.9864 48.8883C21.0801 48.7945 21.1328 48.6674 21.1328 48.5348V38.0098C21.1328 37.8772 21.0801 37.75 20.9864 37.6562C20.8926 37.5624 20.7654 37.5098 20.6328 37.5098Z" fill="#2B1F51"/>
<path d="M15.2535 32.4639C15.2285 32.4639 13.4235 32.1579 13.3985 32.1539C3.29853 30.5929 0.0515104 19.9729 0.0205104 19.8659C-0.0117322 19.7569 -0.00582262 19.6401 0.0372646 19.5348C0.0803518 19.4295 0.158041 19.3421 0.25751 19.2869L10.9215 13.3869C11.0375 13.3226 11.1744 13.307 11.3019 13.3436C11.4294 13.3802 11.5372 13.4659 11.6015 13.5819C11.6658 13.698 11.6814 13.8348 11.6448 13.9623C11.6083 14.0898 11.5226 14.1976 11.4065 14.2619L1.10651 19.9619C1.77251 21.8109 5.13853 29.8619 13.5495 31.1679C13.6805 31.1881 13.7981 31.2595 13.8765 31.3664C13.9549 31.4733 13.9876 31.6069 13.9675 31.7379C13.9305 31.9829 15.4955 32.4639 15.2535 32.4639Z" fill="#2B1F51"/>
</svg>

<svg xmlns="http://www.w3.org/2000/svg" width="38" height="59" fill="none" viewBox="0 0 38 59"><path fill="#2b1f51" d="M30.488 50.605a12.87 12.87 0 0 0-11.657 0c-.656.382-1.326.714-1.917 1.008-1.527.759-2.63 1.307-2.66 2.227-.024.789.808 1.372 1.535 1.792a27.1 27.1 0 0 0 11.311 3 6.96 6.96 0 0 0 3.424-.706 3.9 3.9 0 0 0-.036-7.325zM30.313 19.827a.5.5 0 0 1-.32-.885c4.526-3.762 6.285-14.493 6.71-17.627l-5.71 2.539a.5.5 0 0 1-.407-.914l6.52-2.9a.5.5 0 0 1 .7.509c-.06.589-1.563 14.5-7.174 19.16a.5.5 0 0 1-.32.118"/><path fill="#fff" d="m34.007 9.16-.628 6.16a32.3 32.3 0 0 1-10.75 20.932l-1.992 1.76A32.3 32.3 0 0 1 7.87 15.32l-.6-6.16z"/><path fill="#2b1f51" d="M20.636 38.51a.5.5 0 0 1-.3-.1A32.88 32.88 0 0 1 7.372 15.367l-.6-6.16a.5.5 0 0 1 .5-.549h26.74a.5.5 0 0 1 .5.551l-.627 6.16a32.7 32.7 0 0 1-10.917 21.256l-1.992 1.76a.5.5 0 0 1-.34.125M7.818 9.66l.55 5.61a31.87 31.87 0 0 0 12.245 22.094l1.684-1.488c6-5.29 9.78-12.65 10.583-20.609l.572-5.608z"/><path fill="#fff" d="M11.161 2.852c5.267-3.042 13.781-3.042 19.015 0s5.2 7.97-.065 11.012c-5.265 3.04-13.779 3.04-19.01 0-5.23-3.04-5.205-7.973.06-11.012"/><path fill="#2b1f51" d="M20.595 16.634a19.84 19.84 0 0 1-9.744-2.336c-2.684-1.56-4.159-3.663-4.156-5.92 0-2.275 1.5-4.39 4.217-5.958 5.4-3.119 14.154-3.116 19.515 0 2.682 1.557 4.157 3.66 4.154 5.918 0 2.274-1.5 4.39-4.219 5.96a20 20 0 0 1-9.767 2.336M11.412 3.285C9.017 4.668 7.698 6.476 7.695 8.378c0 1.887 1.3 3.682 3.658 5.054 5.086 2.957 13.39 2.956 18.51 0 2.4-1.383 3.716-3.193 3.718-5.1 0-1.887-1.3-3.68-3.656-5.052-5.088-2.957-13.392-2.956-18.513 0z"/><path fill="#fff" d="M28.524 51.388c.054 1.214-.722 2.438-2.326 3.364a12.3 12.3 0 0 1-11.152 0 3.9 3.9 0 0 1-2.292-3.23v-1.987h15.773z"/><path fill="#2b1f51" d="M20.617 56.581a11.84 11.84 0 0 1-5.821-1.4 4.38 4.38 0 0 1-2.542-3.665v-1.98a.5.5 0 0 1 .5-.5h15.774a.5.5 0 0 1 .5.5v1.842c.058 1.44-.88 2.827-2.576 3.806a11.9 11.9 0 0 1-5.835 1.397m-7.363-6.546v1.487a3.44 3.44 0 0 0 2.044 2.8 11.75 11.75 0 0 0 10.65 0c1.387-.8 2.125-1.835 2.078-2.909v-1.376z"/><path fill="#fff" d="M15.078 45.305a12.3 12.3 0 0 1 11.155 0c3.07 1.783 3.052 4.677-.038 6.46a12.3 12.3 0 0 1-11.152 0c-3.065-1.784-3.052-4.677.035-6.46"/><path fill="#2b1f51" d="M20.616 53.594a11.84 11.84 0 0 1-5.82-1.4 3.9 3.9 0 0 1 .036-7.325 12.86 12.86 0 0 1 11.656 0 3.9 3.9 0 0 1-.04 7.325 11.9 11.9 0 0 1-5.832 1.4m-5.284-7.856a3.49 3.49 0 0 0-2.078 2.808 3.45 3.45 0 0 0 2.044 2.787 11.75 11.75 0 0 0 10.65 0 3.49 3.49 0 0 0 2.08-2.81 3.44 3.44 0 0 0-2.042-2.785 11.76 11.76 0 0 0-10.654 0"/><path fill="#2b1f51" d="M20.633 37.51a.5.5 0 0 0-.5.5v10.525a.5.5 0 0 0 1 0V38.01a.5.5 0 0 0-.5-.5M15.254 32.464c-.025 0-1.83-.306-1.855-.31C3.299 30.593.052 19.973.02 19.866a.5.5 0 0 1 .237-.58l10.664-5.9a.5.5 0 0 1 .484.876l-10.3 5.7c.667 1.849 4.033 9.9 12.444 11.206a.5.5 0 0 1 .417.57c-.037.245 1.528.726 1.287.726"/></svg>
